svg/asterisk_circle_outline.svg

<svg xmlns="http://www.w3.org/2000/svg" viewBox="0 0 24 24"><path d="M12 2C6.5 2 2 6.5 2 12s4.5 10 10 10 10-4.5 10-10S17.5 2 12 2m0 18c-4.39 0-8-3.61-8-8s3.61-8 8-8 8 3.61 8 8-3.61 8-8 8m1-9.73 2.83-1.64 1 1.74L14 12l2.83 1.63-1 1.74L13 13.73V17h-2v-3.27l-2.83 1.64-1-1.74L10 12l-2.83-1.63 1-1.74L11 10.27V7h2z"/></svg>

<svg xmlns="http://www.w3.org/2000/svg" id="mdi-asterisk-circle-outline" viewBox="0 0 24 24"><path d="M12 2C6.5 2 2 6.5 2 12C2 17.5 6.5 22 12 22C17.5 22 22 17.5 22 12C22 6.5 17.5 2 12 2M12 20C7.61 20 4 16.39 4 12C4 7.61 7.61 4 12 4C16.39 4 20 7.61 20 12C20 16.39 16.39 20 12 20M13 10.27L15.83 8.63L16.83 10.37L14 12L16.83 13.63L15.83 15.37L13 13.73V17H11V13.73L8.17 15.37L7.17 13.63L10 12L7.17 10.37L8.17 8.63L11 10.27V7H13V10.27Z" /></svg>
